exported-svg/git-branch.svg

<svg height="24" viewBox="0 0 24 24" width="24" xmlns="http://www.w3.org/2000/svg"><path d="m9.96614421 18.9887636c-.23776595 1.7016217-1.69901663 3.0112364-3.46614421 3.0112364-1.93299662 0-3.5-1.5670034-3.5-3.5 0-1.763236 1.30385293-3.2219407 3-3.4645556v-11.5354444c0-.27614237.22385763-.5.5-.5s.5.22385763.5.5v11.5354444c1.52871564.2186657 2.73876345 1.4251838 2.96276173 2.9521728 4.32601297-.2320978 7.79275767-3.6988425 8.02485547-8.02485547-1.690106-.24792638-2.9876172-1.70381907-2.9876172-3.46276173 0-1.93299662 1.5670034-3.5 3.5-3.5s3.5 1.56700338 3.5 3.5c0 1.76712758-1.3096147 3.22837826-3.0112364 3.46614421-.2355817 4.87574309-4.1468763 8.78703769-9.02261939 9.02261939zm8.53385579-9.9887636c1.3807119 0 2.5-1.11928813 2.5-2.5s-1.1192881-2.5-2.5-2.5-2.5 1.11928813-2.5 2.5 1.1192881 2.5 2.5 2.5zm-12 12c1.38071187 0 2.5-1.1192881 2.5-2.5s-1.11928813-2.5-2.5-2.5-2.5 1.1192881-2.5 2.5 1.11928813 2.5 2.5 2.5z"/></svg>

<?xml version="1.0" encoding="UTF-8"?>
<svg width="24px" height="24px" viewBox="0 0 24 24" version="1.1" xmlns="http://www.w3.org/2000/svg" xmlns:xlink="http://www.w3.org/1999/xlink">
    <!-- Generator: Sketch 55.2 (78181) - https://sketchapp.com -->
    <title>git-branch</title>
    <desc>Created with Sketch.</desc>
    <g id="git-branch" stroke="none" stroke-width="1" fill="none" fill-rule="evenodd">
        <path d="M9.96614421,18.9887636 C9.72837826,20.6903853 8.26712758,22 6.5,22 C4.56700338,22 3,20.4329966 3,18.5 C3,16.736764 4.30385293,15.2780593 6,15.0354444 L6,3.5 C6,3.22385763 6.22385763,3 6.5,3 C6.77614237,3 7,3.22385763 7,3.5 L7,15.0354444 C8.52871564,15.2541101 9.73876345,16.4606282 9.96276173,17.9876172 C14.2887747,17.7555194 17.7555194,14.2887747 17.9876172,9.96276173 C16.2975112,9.71483535 15,8.25894266 15,6.5 C15,4.56700338 16.5670034,3 18.5,3 C20.4329966,3 22,4.56700338 22,6.5 C22,8.26712758 20.6903853,9.72837826 18.9887636,9.96614421 C18.7531819,14.8418873 14.8418873,18.7531819 9.96614421,18.9887636 Z M18.5,9 C19.8807119,9 21,7.88071187 21,6.5 C21,5.11928813 19.8807119,4 18.5,4 C17.1192881,4 16,5.11928813 16,6.5 C16,7.88071187 17.1192881,9 18.5,9 Z M6.5,21 C7.88071187,21 9,19.8807119 9,18.5 C9,17.1192881 7.88071187,16 6.5,16 C5.11928813,16 4,17.1192881 4,18.5 C4,19.8807119 5.11928813,21 6.5,21 Z" id="Combined-Shape" fill="#000000" fill-rule="nonzero"></path>
    </g>
</svg>
